X:10988
T:Miss Susan Cooper
C:Ronnie Cooper
M:C|
L:1/8
R:reel
K:D
(3ABc|dfed B2dB|A2FA  DAFA|ABde fa^ga|g2fd eA
  ce |dfed B2dB|A2FA  DAFA|ABde fafd |eAce d2:|
  dB |Bcde fBBB|def^g a2gf|eAce a2^ga|g2fd eA
  ce |dfed B2dB|A2FA  DAFA|ABde fafd |eAce d2:|
